media/kionmts.svg

<svg width="413" height="149" viewBox="0 0 413 149" fill="none" xmlns="http://www.w3.org/2000/svg">
<mask id="mask0_169_2133" style="mask-type:alpha" maskUnits="userSpaceOnUse" x="0" y="0" width="413" height="99">
<path d="M134.936 3.68455V94.9459C134.936 96.9776 133.29 98.6304 131.268 98.6304H107.582C105.559 98.6304 103.914 96.9776 103.914 94.9459V3.68455C103.914 1.65288 105.559 0 107.582 0H131.268C133.29 0 134.936 1.65288 134.936 3.68455ZM97.9068 94.4552L70.3129 47.0726L96.4671 4.31298C97.7182 2.48793 96.4242 0 94.2219 0L65.4883 0C64.5799 0 63.7229 0.456264 63.2173 1.21383L42.8733 35.9501H31.0217V3.68455C31.0217 1.65288 29.3763 0 27.3539 0H3.66775C1.64535 0 0 1.65288 0 3.68455V94.9459C0 96.9776 1.64535 98.6304 3.66775 98.6304H27.3539C29.3763 98.6304 31.0217 96.9776 31.0217 94.9459V62.8181H45.4613L65.6597 97.2875C66.1567 98.1139 67.0479 98.6304 68.0077 98.6304H95.5759C97.7097 98.6304 99.0208 96.2803 97.9068 94.4552ZM408.389 98.6304C410.411 98.6304 412.057 96.9776 412.057 94.9459V3.68455C412.057 1.65288 410.411 0 408.389 0H385.706C383.683 0 382.038 1.65288 382.038 3.68455V50.3698L340.553 0H314.27C312.248 0 310.602 1.65288 310.602 3.68455V94.9545C310.602 96.9862 312.239 98.6304 314.261 98.6304H337.039C339.062 98.6304 340.698 96.9862 340.698 94.9545V48.252L381.721 98.6304H408.389ZM301.099 4.07194V94.5671C301.099 96.814 299.282 98.6391 297.045 98.6391H148.475C146.239 98.6391 144.422 96.814 144.422 94.5671V4.07194C144.422 1.82506 146.239 0 148.475 0H297.054C299.29 0 301.099 1.82506 301.099 4.07194ZM270.266 26.2223C270.266 25.4044 269.52 24.7932 268.714 24.9568C252.664 28.1764 195.831 28.6671 176.772 24.9309C175.984 24.776 175.255 25.3872 175.255 26.205V70.9791C175.255 71.7711 175.949 72.3738 176.738 72.2618C192.54 69.9117 252.612 70.2991 268.826 72.3135C269.597 72.4082 270.266 71.8056 270.266 71.0308V26.2223Z" fill="white"/>
</mask>
<g mask="url(#mask0_169_2133)">
<path d="M413.979 0H0V98.6391H413.979V0Z" fill="white"/>
</g>
<path d="M369.857 143.185H377.282V124.49H384.438V117.848H362.701V124.49H369.857V143.185Z" fill="white"/>
<path d="M412.097 124.49V117.848H400.947C391.084 117.848 385.188 122.588 385.188 130.516C385.188 138.444 391.084 143.185 400.947 143.185H412.097V136.543H400.947C395.667 136.543 392.88 134.454 392.88 130.516C392.88 126.579 395.667 124.49 400.947 124.49H412.097Z" fill="white"/>
<path d="M342.707 133.034L338.633 117.848H325.285V143.185H332.709V121.463L332.977 122.454L338.526 143.185H347.129L352.945 121.463V143.185H360.369V117.848H347.022L342.841 133.516L342.707 133.034Z" fill="white"/>
<path d="M307.247 116.32C305.156 116.32 302.664 118.356 300.6 121.757C298.429 125.32 297.143 129.712 297.143 133.542C297.143 139.113 300.278 144.711 307.247 144.711C314.216 144.711 317.352 139.087 317.352 133.542C317.352 129.712 316.065 125.32 313.894 121.757C311.83 118.356 309.338 116.32 307.247 116.32Z" fill="white"/>
<path d="M143.242 133.943C143.242 139.622 147.423 143.907 152.971 143.907C154.821 143.907 156.509 143.479 158.091 142.621V139.22C156.804 140.05 155.33 140.773 153.32 140.773C150.104 140.773 146.7 138.363 146.7 133.917C146.7 130.006 149.541 127.087 153.32 127.087C155.062 127.087 156.456 127.515 158.091 128.56V125.212C156.509 124.355 154.821 123.953 152.971 123.953C147.423 123.98 143.242 128.265 143.242 133.943Z" fill="white"/>
<path d="M164.684 131.586L164.657 131.666H164.416L164.041 129.497H161.414V143.531H164.738V136.3C164.738 133.434 166.641 132.416 168.409 132.416C168.785 132.416 169.106 132.443 169.428 132.496V129.416C169.187 129.363 168.892 129.336 168.517 129.336C167.927 129.336 165.836 129.497 164.684 131.586Z" fill="white"/>
<path d="M177.764 129.148C173.716 129.148 170.795 132.255 170.795 136.541C170.795 140.987 173.77 143.853 178.38 143.853C180.122 143.853 181.784 143.397 183.204 142.514V139.782C181.784 140.719 180.256 141.228 178.782 141.228C176.289 141.228 174.44 139.835 173.931 137.559L173.904 137.398H183.982C184.035 137.05 184.062 136.675 184.062 136.219C184.089 131.934 181.623 129.148 177.764 129.148ZM173.904 135.416L173.931 135.255C174.333 133.166 175.861 131.773 177.737 131.773C179.64 131.773 180.899 133.139 180.926 135.282V135.416H173.904Z" fill="white"/>
<path d="M197.651 132.067L197.464 131.746C196.472 130.085 194.73 129.121 192.746 129.121C189.664 129.121 186.475 131.88 186.475 136.487C186.475 140.022 188.86 143.825 192.746 143.825C194.73 143.825 196.445 142.861 197.464 141.174L197.651 140.852L198.053 143.45H200.814V129.416H198.053L197.651 132.067ZM193.738 140.879C191.487 140.879 189.825 139.031 189.825 136.513C189.825 133.996 191.46 132.148 193.738 132.148C195.963 132.148 197.571 133.996 197.571 136.513C197.571 139.031 195.936 140.879 193.738 140.879Z" fill="white"/>
<path d="M208.854 138.121V132.229H212.767V129.497H208.854V126.176H205.664V129.497H203.547V132.229H205.637V138.309C205.637 141.818 207.621 143.826 211.105 143.826C211.829 143.826 212.445 143.773 213.035 143.639V140.853C212.606 140.934 212.231 140.96 211.882 140.96C209.926 140.907 208.854 139.916 208.854 138.121Z" fill="white"/>
<path d="M221.961 129.148C217.914 129.148 214.992 132.255 214.992 136.541C214.992 140.987 217.967 143.853 222.577 143.853C224.319 143.853 225.981 143.397 227.402 142.514V139.782C225.981 140.719 224.453 141.228 222.979 141.228C220.487 141.228 218.637 139.835 218.155 137.559L218.128 137.398H228.206C228.259 137.05 228.286 136.675 228.286 136.219C228.286 131.934 225.794 129.148 221.961 129.148ZM218.101 135.416L218.128 135.255C218.53 133.166 220.031 131.773 221.934 131.773C223.837 131.773 225.097 133.139 225.124 135.282V135.416H218.101Z" fill="white"/>
<path d="M241.688 132.068L241.446 131.64C240.562 130.113 238.847 129.149 236.97 129.149C233.915 129.149 230.672 131.72 230.672 136.488C230.672 140.103 233.03 143.853 236.997 143.853C238.927 143.853 240.669 142.862 241.661 141.202L241.848 140.88L242.25 143.478H245.011V122.908H241.688V132.068ZM237.909 140.88C235.657 140.88 233.995 139.032 233.995 136.514C233.995 133.997 235.63 132.149 237.909 132.149C240.133 132.149 241.741 133.997 241.741 136.514C241.741 139.032 240.133 140.88 237.909 140.88Z" fill="white"/>
<path d="M263.88 129.148C261.977 129.148 260.182 130.139 259.297 131.666L259.056 132.094V122.961H255.732V143.531H258.493L258.895 140.933L259.083 141.254C260.074 142.915 261.817 143.906 263.746 143.906C267.686 143.906 270.072 140.156 270.072 136.54C270.072 131.719 266.882 129.148 263.88 129.148ZM262.835 140.879C260.61 140.879 258.976 139.031 258.976 136.514C258.976 133.996 260.584 132.148 262.808 132.148C265.06 132.148 266.721 133.996 266.721 136.54C266.721 139.031 265.086 140.879 262.835 140.879Z" fill="white"/>
<path d="M281.891 129.496L278.54 139.353H278.272L278.246 139.272L274.949 129.496H271.357L276.691 143.209L276.664 143.263L274.306 148.968H277.629L285.295 129.496H281.891Z" fill="white"/>
</svg>

<svg width="413" height="149" viewBox="0 0 413 149" fill="none" xmlns="http://www.w3.org/2000/svg"><mask id="a" style="mask-type:alpha" maskUnits="userSpaceOnUse" x="0" y="0" width="413" height="99"><path d="M135 3.7v91.2c0 2-1.7 3.7-3.7 3.7h-23.7c-2 0-3.7-1.6-3.7-3.7V3.7c0-2 1.7-3.7 3.7-3.7h23.7c2 0 3.6 1.7 3.6 3.7ZM98 94.5 70.2 47 96.5 4.3c1.2-1.8 0-4.3-2.3-4.3H65.5c-1 0-1.8.5-2.3 1.2L43 36H31V3.7c0-2-1.6-3.7-3.6-3.7H3.7C1.7 0 0 1.7 0 3.7v91.2c0 2 1.6 3.7 3.7 3.7h23.7c2 0 3.6-1.6 3.6-3.7V63h14.5l20.2 34.4c.5.8 1.3 1.3 2.3 1.3h27.6c2.1 0 3.4-2.3 2.3-4.1Zm310.4 4.1c2 0 3.7-1.6 3.7-3.7V3.7c0-2-1.7-3.7-3.7-3.7h-22.7c-2 0-3.7 1.7-3.7 3.7v46.7L340.6 0h-26.3c-2 0-3.7 1.7-3.7 3.7V95c0 2 1.6 3.6 3.7 3.6H337c2 0 3.7-1.6 3.7-3.6V48.3l41 50.3h26.7ZM301 4.1v90.5a4 4 0 0 1-4 4H148.4a4 4 0 0 1-4-4V4a4 4 0 0 1 4-4.1H297a4 4 0 0 1 4 4Zm-30.8 22.1c0-.8-.8-1.4-1.6-1.2-16 3.2-72.9 3.7-92 0-.7-.2-1.4.4-1.4 1.2V71c0 .8.6 1.4 1.4 1.3 15.8-2.4 76-2 92.1 0 .8.1 1.5-.5 1.5-1.3V26.2Z" fill="#fff"/></mask><g mask="url(#a)"><path d="M414 0H0v98.6h414V0Z" fill="#fff"/></g><path d="M369.9 143.2h7.4v-18.7h7.1v-6.7h-21.7v6.7h7.2v18.7ZM412.1 124.5v-6.7h-11.2c-9.8 0-15.7 4.8-15.7 12.7 0 8 5.9 12.7 15.7 12.7h11.2v-6.7h-11.2c-5.2 0-8-2-8-6s2.8-6 8-6h11.2ZM342.7 133l-4-15.2h-13.4v25.4h7.4v-21.7l.3 1 5.5 20.7h8.6l5.8-21.7v21.7h7.5v-25.4H347l-4.2 15.7v-.5ZM307.2 116.3c-2 0-4.5 2-6.6 5.5-2.2 3.5-3.5 8-3.5 11.7 0 5.6 3.2 11.2 10.1 11.2 7 0 10.2-5.6 10.2-11.2 0-3.8-1.3-8.2-3.5-11.7-2-3.4-4.6-5.5-6.7-5.5ZM143.2 134c0 5.6 4.2 10 9.8 10 1.8 0 3.5-.5 5-1.4v-3.4a8.4 8.4 0 0 1-4.7 1.6 6.6 6.6 0 0 1-6.6-6.9c0-3.9 2.8-6.8 6.6-6.8 1.8 0 3.2.4 4.8 1.5v-3.4c-1.6-.8-3.3-1.2-5.1-1.2a9.7 9.7 0 0 0-9.8 10ZM164.7 131.6h-.3l-.4-2.1h-2.6v14h3.3v-7.2c0-2.9 2-3.9 3.7-3.9l1 .1v-3l-.9-.2c-.6 0-2.7.2-3.8 2.3ZM177.8 129.1c-4 0-7 3.2-7 7.4 0 4.5 3 7.4 7.6 7.4a9 9 0 0 0 4.8-1.4v-2.7c-1.4 1-3 1.4-4.4 1.4-2.5 0-4.4-1.4-4.9-3.6v-.2h10l.2-1.2c0-4.3-2.5-7-6.3-7Zm-3.9 6.3v-.1c.4-2.1 2-3.5 3.8-3.5 2 0 3.2 1.3 3.2 3.5v.1h-7ZM197.7 132l-.2-.3a5.4 5.4 0 0 0-4.8-2.6c-3 0-6.2 2.8-6.2 7.4 0 3.5 2.4 7.3 6.2 7.3 2 0 3.7-1 4.8-2.6l.2-.3.4 2.5h2.7v-14h-2.7l-.4 2.7Zm-4 8.9c-2.2 0-3.9-1.9-3.9-4.4 0-2.5 1.7-4.4 4-4.4 2.2 0 3.8 1.9 3.8 4.4 0 2.5-1.7 4.4-3.9 4.4ZM208.9 138.1v-5.9h3.9v-2.7h-4v-3.3h-3.1v3.3h-2.2v2.7h2.1v6.1c0 3.5 2 5.5 5.5 5.5.7 0 1.3 0 2-.2V141h-1.2c-2 0-3-1-3-2.8ZM222 129.1c-4 0-7 3.2-7 7.4 0 4.5 3 7.4 7.6 7.4 1.7 0 3.4-.5 4.8-1.4v-2.7c-1.4 1-3 1.4-4.4 1.4-2.5 0-4.4-1.4-4.8-3.6v-.2h10v-1.2c0-4.3-2.4-7-6.2-7Zm-3.9 6.3v-.1c.4-2.1 2-3.5 3.8-3.5 2 0 3.2 1.3 3.2 3.5v.1h-7ZM241.7 132l-.3-.4a5.2 5.2 0 0 0-4.4-2.5c-3 0-6.3 2.6-6.3 7.4 0 3.6 2.3 7.4 6.3 7.4 2 0 3.7-1 4.7-2.7l.1-.3.4 2.6h2.8v-20.6h-3.3v9.2Zm-3.8 8.9c-2.2 0-4-1.9-4-4.4 0-2.5 1.7-4.4 4-4.4 2.2 0 3.8 1.9 3.8 4.4 0 2.5-1.6 4.4-3.8 4.4ZM263.9 129.1c-2 0-3.7 1-4.6 2.6l-.2.4V123h-3.4v20.5h2.8l.4-2.6.2.4c1 1.6 2.7 2.6 4.6 2.6 4 0 6.4-3.7 6.4-7.4 0-4.8-3.2-7.4-6.2-7.4Zm-1 11.8c-2.3 0-4-1.9-4-4.4 0-2.5 1.7-4.4 4-4.4 2.2 0 3.8 1.9 3.8 4.4 0 2.5-1.6 4.4-3.9 4.4ZM281.9 129.5l-3.4 9.9h-.2v-.1l-3.4-9.8h-3.5l5.3 13.7-2.4 5.8h3.3l7.7-19.5h-3.4Z" fill="#fff"/></svg>
